X:1
L:1/8
M:3/4
K:Gmin
|:""Gm"" D>d (c>B) (A>G) |""Gm"" GA/B/ (c/B/)A/G/""D"" ^FD |""D"" D^F/A/ DF/A/ D(F/A/) | 
""Gm"" GA/B/ (c/B/)A/G/""D"" ^FD |""D"" D^F/A/ DF/A/ D(F/A/) |""Gm"" GA/B/ (c/B/)A/G/""D"" ^FD | 
""D"" D>d (cA)""Gm"" (Bd) |""D"" (D/^F/)A/F/""Gm"" G4 ::""D"" D>A, (B,C) D2 |""Gm"" D>G (FE) D2 | 
""D"" D>A, (B,C) D2 |""Gm"" D>G (FE) D2 |""D"" D^F/A/ dA/F/ D2 |""Gm"" DG/B/ dB/G/ D2 | 
""D"" D>d (cA)""Gm"" (Bd) |""D"" (D/^F/)A/F/""Gm"" G4 :|
